img/manaSymbols/outline/outliner.svg

﻿<?xml version="1.0" encoding="utf-8"?>
<svg width="660" height="660" viewBox="0 0 660 660" version="1.1" xmlns="http://www.w3.org/2000/svg" xml:space="preserve" style="fill-rule: evenodd; clip-rule: evenodd; stroke-linejoin: round; stroke-miterlimit: 2;" preserveAspectRatio="xMidYMid meet" zoomAndPan="magnify" contentScriptType="application/ecmascript" contentStyleType="text/css">
  <path d="M300-30C117.868-30-30 117.868-30 300s147.868 330 330 330 330-147.868 330-330S482.132-30 300-30zm0 30c165.575 0 300 134.425 300 300S465.575 600 300 600 0 465.575 0 300 134.425 0 300 0z" style="fill: rgb(228, 26, 45);" transform="matrix(1,0,0,1,30,30)" />
  <path d="M551.8 399.7c-22.4 53.5-67 80.2-133.6 80.2-12.2 0-25.5 1.5-39.7 4.6-21.4 4.6-32.1 11-32.1 19.1 0 2.5 1.8 5.5 5.3 8.8 3.6 3.3 6.6 5 9.2 5-12.7 0-4.1.4 26 1.1 30.1.8 48.9 1.1 56.5 1.1-44.3 26-118.4 37.9-222.3 35.9-34.1-.5-63.4-15.5-87.8-45.1-24-28-35.9-59.3-35.9-93.9 0-36.6 12.3-67.8 37.1-93.6 24.7-25.7 55.4-38.6 92-38.6 8.1 0 19 1.8 32.5 5.3 13.5 3.6 22.5 5.3 27.1 5.3 18.8 0 42.3-7.8 70.3-23.3 28-15.5 41.3-23.3 39.7-23.3-5.1 53.5-22.9 89.4-53.5 107.7-21.9 12.7-32.8 25.2-32.8 37.4 0 7.6 4.6 13.8 13.7 18.3 7.1 3.6 15 5.4 23.7 5.4 13.2 0 26.2-8.1 39-24.4 12.7-16.3 18.3-31.1 16.8-44.3-1.5-15.3-.5-33.6 3.1-55 1-6.1 4.7-13.6 11.1-22.5 6.4-8.9 12.1-14.4 17.2-16.4 0 4.6-1.6 12.2-5 22.9-3.3 10.7-5 18.6-5 23.7 0 11.2 3 19.9 9.2 26 9.2-3.6 17.3-15 24.4-34.4 6.1-14.8 9.7-29 10.7-42.8-21.4-1-41.9-10.7-61.5-29-19.6-18.3-29.4-38.2-29.4-59.6 0-3.6.5-7.1 1.5-10.7 3 4.6 7.6 11.7 13.7 21.4 8.7 12.7 15.3 19.1 19.9 19.1 6.1 0 9.2-6.4 9.2-19.1 0-16.3-4.3-31.1-13-44.3-9.7-15.8-22.2-23.7-37.4-23.7-7.1 0-17.8 3.8-32.1 11.5-14.3 7.6-27.3 11.5-39 11.5-3.6 0-19.4-4.6-47.4-13.8 49.4-8.1 74.1-15.5 74.1-22.1 0-17.3-33.9-29-101.6-35.1-6.6-.5-18.8-1.5-36.7-3.1 2-2.5 16.5-5.3 43.5-8.4 22.9-2.5 39-3.8 48.1-3.8 121.2 0 198.1 58.8 230.7 176.5 5.6-4.6 8.4-12.4 8.4-23.2 0-13.9-4.1-31.5-12.2-52.7-3.1-8.2-7.9-20.6-14.5-37.2 41.7 53.2 62.6 103.6 62.6 151.2 0 25.1-5.9 47.8-17.6 68.3-7.6 13.8-21.9 31.5-42.8 53s-35.1 38.1-42.8 49.9c28-7.6 46.4-13.5 55-17.6 19.3-8.6 36.9-21.6 52.7-39 0 6.6-2.8 16.6-8.4 29.8M218.8 99.5c0 9.2-5.1 15-15.3 17.6l-19.9 3.1c-7.1 3.6-17.6 17.6-31.3 42-1.5-7.6-3.8-18.3-6.9-32.1-4.6.5-12.2 4.6-22.9 12.2-4.6 3.6-12 8.9-22.2 16 3.1-18.3 13.2-36.9 30.6-55.8 18.3-20.9 36.2-31.3 53.5-31.3 22.9 0 34.4 9.4 34.4 28.3m132.9 70.3c0 8.7-4.7 15.9-14.1 21.8-9.4 5.9-18.7 8.8-27.9 8.8-12.2 0-23.2-6.9-32.8-20.6-11.7-16.8-23.7-27.7-35.9-32.9 2.5-2.5 5.6-3.8 9.2-3.8 4.6 0 12.3 3.6 23.3 10.7 10.9 7.1 17.9 10.7 21 10.7 2.5 0 6.7-3.6 12.6-10.7 5.9-7.1 12.3-10.7 19.5-10.7 16.8 0 25.2 8.9 25.2 26.7" style="fill: rgb(228, 26, 45); fill-rule: nonzero;" transform="matrix(1,0,0,1,29.2,30)" />
</svg>

<?xml version="1.0" encoding="UTF-8" standalone="no"?>
<!DOCTYPE svg PUBLIC "-//W3C//DTD SVG 1.1//EN" "http://www.w3.org/Graphics/SVG/1.1/DTD/svg11.dtd">
<svg width="660" height="660" viewBox="0 0 660 660" version="1.1" xmlns="http://www.w3.org/2000/svg" xmlns:xlink="http://www.w3.org/1999/xlink" xml:space="preserve" xmlns:serif="http://www.serif.com/" style="fill-rule:evenodd;clip-rule:evenodd;stroke-linejoin:round;stroke-miterlimit:2;">
    <g transform="matrix(1,0,0,1,30,30)">
        <path d="M300,-30C117.868,-30 -30,117.868 -30,300C-30,482.132 117.868,630 300,630C482.132,630 630,482.132 630,300C630,117.868 482.132,-30 300,-30ZM300,0C465.575,0 600,134.425 600,300C600,465.575 465.575,600 300,600C134.425,600 0,465.575 0,300C0,134.425 134.425,0 300,0Z" style="fill:rgb(228,26,45);"/>
    </g>
    <g transform="matrix(1,0,0,1,29.2,30)">
        <path d="M551.8,399.7C529.4,453.2 484.8,479.9 418.2,479.9C406,479.9 392.7,481.4 378.5,484.5C357.1,489.1 346.4,495.5 346.4,503.6C346.4,506.1 348.2,509.1 351.7,512.4C355.3,515.7 358.3,517.4 360.9,517.4C348.2,517.4 356.8,517.8 386.9,518.5C417,519.3 435.8,519.6 443.4,519.6C399.1,545.6 325,557.5 221.1,555.5C187,555 157.7,540 133.3,510.4C109.3,482.4 97.4,451.1 97.4,416.5C97.4,379.9 109.7,348.7 134.5,322.9C159.2,297.2 189.9,284.3 226.5,284.3C234.6,284.3 245.5,286.1 259,289.6C272.5,293.2 281.5,294.9 286.1,294.9C304.9,294.9 328.4,287.1 356.4,271.6C384.4,256.1 397.7,248.3 396.1,248.3C391,301.8 373.2,337.7 342.6,356C320.7,368.7 309.8,381.2 309.8,393.4C309.8,401 314.4,407.2 323.5,411.7C330.6,415.3 338.5,417.1 347.2,417.1C360.4,417.1 373.4,409 386.2,392.7C398.9,376.4 404.5,361.6 403,348.4C401.5,333.1 402.5,314.8 406.1,293.4C407.1,287.3 410.8,279.8 417.2,270.9C423.6,262 429.3,256.5 434.4,254.5C434.4,259.1 432.8,266.7 429.4,277.4C426.1,288.1 424.4,296 424.4,301.1C424.4,312.3 427.4,321 433.6,327.1C442.8,323.5 450.9,312.1 458,292.7C464.1,277.9 467.7,263.7 468.7,249.9C447.3,248.9 426.8,239.2 407.2,220.9C387.6,202.6 377.8,182.7 377.8,161.3C377.8,157.7 378.3,154.2 379.3,150.6C382.3,155.2 386.9,162.3 393,172C401.7,184.7 408.3,191.1 412.9,191.1C419,191.1 422.1,184.7 422.1,172C422.1,155.7 417.8,140.9 409.1,127.7C399.4,111.9 386.9,104 371.7,104C364.6,104 353.9,107.8 339.6,115.5C325.3,123.1 312.3,127 300.6,127C297,127 281.2,122.4 253.2,113.2C302.6,105.1 327.3,97.7 327.3,91.1C327.3,73.8 293.4,62.1 225.7,56C219.1,55.5 206.9,54.5 189,52.9C191,50.4 205.5,47.6 232.5,44.5C255.4,42 271.5,40.7 280.6,40.7C401.8,40.7 478.7,99.5 511.3,217.2C516.9,212.6 519.7,204.8 519.7,194C519.7,180.1 515.6,162.5 507.5,141.3C504.4,133.1 499.6,120.7 493,104.1C534.7,157.3 555.6,207.7 555.6,255.3C555.6,280.4 549.7,303.1 538,323.6C530.4,337.4 516.1,355.1 495.2,376.6C474.3,398.1 460.1,414.7 452.4,426.5C480.4,418.9 498.8,413 507.4,408.9C526.7,400.3 544.3,387.3 560.1,369.9C560.1,376.5 557.3,386.5 551.7,399.7M218.8,99.5C218.8,108.7 213.7,114.5 203.5,117.1L183.6,120.2C176.5,123.8 166,137.8 152.3,162.2C150.8,154.6 148.5,143.9 145.4,130.1C140.8,130.6 133.2,134.7 122.5,142.3C117.9,145.9 110.5,151.2 100.3,158.3C103.4,140 113.5,121.4 130.9,102.5C149.2,81.6 167.1,71.2 184.4,71.2C207.3,71.2 218.8,80.6 218.8,99.5M351.7,169.8C351.7,178.5 347,185.7 337.6,191.6C328.2,197.5 318.9,200.4 309.7,200.4C297.5,200.4 286.5,193.5 276.9,179.8C265.2,163 253.2,152.1 241,146.9C243.5,144.4 246.6,143.1 250.2,143.1C254.8,143.1 262.5,146.7 273.5,153.8C284.4,160.9 291.4,164.5 294.5,164.5C297,164.5 301.2,160.9 307.1,153.8C313,146.7 319.4,143.1 326.6,143.1C343.4,143.1 351.8,152 351.8,169.8" style="fill:rgb(228,26,45);fill-rule:nonzero;"/>
    </g>
</svg>
